X:1
T:Buxtehude - Trio Sonata No.1 in F. {Professional production full score.}
%%score [ 1 2 3 ] { ( 4 5 ) | ( 6 7 ) }
L:1/8
Q:1/4=110
M:4/4
K:Bb
V:1 treble nm="Violino."
V:2 alto nm="Viola da gamba."
V:3 bass nm="Cembalo."
V:4 treble nm="Harpsichord"
V:5 treble 
V:6 bass 
V:7 bass 
V:1
"^Vivace.""^C i a c o n n a  in B-Flat Major." z2 z!f! f/f/ f2 z2 | z4 z2 z f/f/ | f2 z2 z4 | %3
 z2 z f Md3/2c/4B/4 f2- | ff b>_a g B2 e | (e<d) (f<c) (d<c) (d<A) | (B<A) (B<F) Gg Pcf | %7
 d3/2c/4B/4 f2 z f/f/ f2 | z g b>a ac (c/d/e) | z d/d/ d2 z d (d/e/f-) | fe/d/ cf d3/2c/4B/4 f2 | %11
 z f b2 z g d>=e | fa Mc2 z d/d/ d2 | z d/d/ d3 c/B/ MB>A | d/e/f/g/ c/d/e/f/ B/c/d/e/ f/g/_a/b/ | %15
 g/=a/b/c'/ b/a/b/c'/ A/B/c/d/ c/d/e/f/ | d/e/f/g/ A/B/c/d/ B/c/d/e/ F/G/_A/B/ | %17
 G/A/B/c/ C/D/E/F/ D/F/B,/d/ c/F/c/f/ | d/B/d/f/ F/B/d/b/ g/G/B/e/ d/B/d/b/ | %19
 a/A/c/f/ f/c/d/e/ d/F/B/d/ d/A/B/c/ | B/4F/4G/4A/4B/4c/4d/4e/4 f/b/_a/b/ g/c/d/e/ Mc>B | %21
 B2 z2 z4 | z8 | z8 | z8 | z8 | z8 | z4 z2 z f | d3/2c/4B/4 f2 z2 z/ f/b/_a/ | %29
 g2 z/ g/d/=e/ f2 z/ c/d/_e/ | d2 z/ c/f/e/ dBBB | B/B/e/e/ e/d/c/d/ B z z f | %32
 d3/2c/4B/4 f2 z/ c/G/A/ B2 | A/c/A/B/ c2 z/ B/F/G/ A>c | B/g/d/=e/ f/F/B/_A/ G/G/c/B/ BA/f/ | %35
 d3/2c/4B/4 f2 z2 z/ b/b/_a/ | g/=a/g/a/ b/c'/b/c'/ a/c/d/e/ f/g/f/e/ | %37
 d/e/d/e/ d/e/c/d/ B/c/B/c/ B/c/B/d/ | G/B/c/B/ MB>A BF z f | d3/2c/4B/4 f2- fe ee | %40
 ed Md>c cB BA | AG MG>F FE/D/ CF | D3/2C/4B,/4 F2 z2 z/ f/g/_a/ | %43
 g/B/G/A/ B/c/d/=e/ f/c/A/B/ c/d/_e/f/ | d/B/F/G/ A/B/c/d/ B/G/D/=E/ F/G/_A/B/ | %45
 Gg/f/ e/d/c/f/ d3/2c/4B/4 f2 | z8 | z2 z f/f/ f2 z2 | z8 | z2 z f d3/2c/4B/4 f2 | z f z b af z c | %51
 z d z A z B z B | z B z A BB, z f | d3/2c/4B/4 f/b/_a/b/ g z z/ c/d/=e/ | %54
 f2 z/ d/_e/f/ d2 z/ B/c/d/ | B2 z/ g/_a/b/ g/a/g/f/ e/d/c/f/ | d3/2c/4B/4 f2 z2 z b | %57
 g2 z d f2 z e | d2 z f B2 z d | GB MB>A B z z f | d3/2c/4B/4 f>F G z/ A/ B z/ G/ | %61
 A z/ B/ c z/ c/ F z/ G/ A z/ a/ | d z/ =e/ f z/ _a/ g z/ g/ c z/ f/ | %63
 d z/ d/ c z/ e/ d z/ e/ f z/ _a/ | g z/ f/ e z/ d/ f z/ A/ c z/ c/ | %65
 F z/ d/ A z/ c/ B z/ B/ F z/ B/ | G z/ e/ d>A B/B/d/B/ f z | z/ B/d/B/ f z z/ G/B/G/ d z | %68
 z/ f/a/f/ c' z z/ d/f/d/ a z | z/ B/d/B/ f z z/ e/f/g/ c>f | d3/2c/4B/4 f>f d3/2c/4B/4 f>F | %71
 G/A/G/A/ B/c/B/c/ A/B/A/B/ c/F/E/F/ | D/d/c/d/ A/f/e/f/ B/b/a/b/ f/d'/c'/d'/ | %73
 G,/C/B,/C/ A,>f d3/2c/4B/4 f2 | z2 z d/f/ c/e/c/e/ d/B/=e/B/ | %75
 A/f/A/f/ c/f/e/f/ d/f/d/f/ A/f/A/f/ | B/b/B/b/ B/b/B/b/ d/b/d/b/ d/b/c/a/ | %77
 bd/d/ cf/f/ df/f/ bF/F/ | Ge/e/ db/b/ ac/c/ fE/E/ | DB/B/ Ad/d/ Bd/d/ fF/F/ | %80
 Gg/g/ fe/e/ dd/d/ f/f/c/c/ | d2 z2 z g/g/ b/b/B/B/ | fa/a/ c'/c'/c/c/ df/f/ a/a/A/A/ | %83
 Bd/d/ f/f/F/F/ G/g/e/B/ MB>A | B2 z2 z4 | z (G/A/) (B/c/d/=e/) (f/g/a/b/) (c'/d'/e'/d'/) | %86
 (D/=E/F/G/) (A/B/c/A/) (B/c/d/e/) (f/g/_a/g/) | g2 z/ g/f/e/ d/d/d/f/ f/f/f/c/ | %88
 d/d/d/f/ b/b/b/f/ g/g/g/c/ e/e/e/B/ | d/d/d/A/ c/c/c/C/ D/D/D/d/ d/d/d/A/ | %90
 B/B/B/b/ b/b/b/f/ g/g/g/b/ d/e/c/d/ | (3Bd=e (3fc_e (3dga (3bf_a | (3gGA (3BcB (3Aab (3c'fe | %93
 (3dfb (3adc (3Bdg (3fB_A | (3GBe (3dcf (3dBd (3:2:1f3 | z8 | z8 | z8 | z2 (3z z f (3dBd (3fF_A | %99
 (3Gga (3bd=e (3fAB (3cf_e | (3dBd (3fce (3dBd (3fg_a | (3cde (3dcf (3dBd (3:2:1f3 | %102
 z2 (3z b_a (3:2:1g3 (3z d=e | (3:2:1f3 (3z ce (3:2:1d3 (3z Ac | %104
 (3Bd=e (3fg_a (3gc!<(!e (3d3/2c/B!<)! | %105
!fff! (6:4:6B/c/d/e/f/g/ (6:4:6f/g/a/b/c'/c/ (6:4:6d/f/g/a/b/d/ (6:4:6f/B/c/B/_A/B/ | %106
 (6:4:6G/e/d/e/d/c/ (6:4:6B/d/e/d/c/B/ (6:4:6A/c/A/F/c/A/ (6:4:6f/c/A/c/F/E/ | %107
 (6:4:6D/F/G/A/B/d/ (6:4:6A/c/d/e/f/A/ (6:4:6B/d/e/f/g/B/ (6:4:6f/A/B/c/d/F/ | %108
 (6:4:5Ge/d/c/B/ (6:4:6A/G/F/E/D/C/ (3:2:1B,3 (3z z f | (3dBd (6:4:6f/g/f/e/d/c/ (3:2:1B3 (3z z B | %110
 (3AFA (6:4:6c/d/c/B/A/G/ (3:2:1F3 (3z z f | %111
 (3dBd (6:4:6f/g/f/e/d/c/[Q:1/4=80] (3:2:4Bb/b/b (3B3/2c/A | !fermata!B2 !breath!z2 z4 |] %113
V:2
!f! z8 | z8 | z8 | z8 | z8 | z8 | z8 | z8 | z8 | z8 | z8 | z8 | z8 | z8 | z8 | z8 | z8 | %17
 z4 z2 z F/F/ | F2 z2 z4 | z2 z F/F/ F2 z2 | z4 z2 z F | D3/2C/4B,/4 F3 FB>_A | %22
 G B,2 E- (E<D) (F<C) | (D<C) (D<A,) (B,<A,) (B,<F,) | G,G CF D3/2C/4B,/4 F/C/D/E/ | %25
 D/B,/C/D/ B,/C/_A,/B,/ G,/E/D/C/ B,/C/D/=E/ | F/C/A,/B,/ C/D/E/F/ D/E/F/G/ A,/B,/C/D/ | %27
 B,/C/D/E/ F/G/_A/B/ G/=A/B/c/ MB>A | B2 z F D3/2C/4B,/4 F2 | z/ B,/G,/A,/ B,2 z/ C/A,/B,/ C2 | %30
 z/ B,/F,/G,/ A,>C B,/G,/D,/=E,/ F,/F,/B,/_A,/ | G,/G,/C/B,/ B,A,/F/ D3/2C/4B,/4 F2 | %32
 z2 z/ F/B/_A/ G2 z/ G/D/=E/ | F2 z/ C/F/E/ D2 z/ C/F/E/ | DB, B,B, B,/B,/E/E/ E/D/C/D/ | %35
 B,B,, z F D3/2C/4B,/4 F2- | FEEE ED MD>C | CB, B,A, A,G, G,F, | F,E,/D,/ C,F D3/2C/4B,/4 F2 | %39
 z2 z/ B/B/_A/ G/A/G/A/ B/c/B/c/ | A/C/D/E/ F/G/F/E/ D/E/D/E/ D/E/C/D/ | %41
 B,/C/B,/C/ B,/C/B,/D/ G,/B,/C/B,/ MB,>A, | B, z z F D3/2C/4B,/4 F2 | z8 | z8 | z4 z2 z F | %46
 D3/2C/4B,/4 F>F, G,>A, B,>C | A,>B, C>F D>D D>A, | B,>B, B,>B, B,>C A,>F | %49
 D3/2C/4B,/4 F2 z2 z/ D/B,/A,/ | G,/B,/G,/A,/ B,/C/D/=E/ F/C/A,/B,/ C/D/_E/F/ | %51
 D/B,/F,/G,/ A,/B,/C/D/ B,/G,/D,/=E,/ F,/G,/_A,/B,/ | G,G/F/ E/D/C/F/ D3/2C/4B,/4 F2 | %53
 z4 z/ B,/G,/A,/ B,2 | z/ C/A,/B,/ C2 z/ B,/F,/G,/ A,2 | z/ G,/D,/=E,/ F,2 z/ F/_E/D/ C/B,/A,/C/ | %56
 B, z z F D3/2C/4B,/4 F2 | z G B2 z A c2 | z B/F/ A2 z G/D/ F2 | E/F/D/E/ CF D3/2C/4B,/4 F2 | %60
 z2 z/ F,/B, z/ G,/ C z/ B,/ E | z/ D/ C z/ D/ E z/ E/ D z/ D/ C | %62
 z/ C/ B, z/ A,/ B, z/ C/ B, z/ B,/ A, | z/ B,/ F z/ F,/ F z/ G/ F z/ F/ B | %64
 z/ _A/ G z/ G/ B z/ =A/ c z/ C/ E | z/ D/ B, z/ C/ F,[K:bass] z/ D,/ G, z/ D/ D, | %66
 z/ E,/ G, z/ F,/ F,, z2 z/ F,/A,/F,/ | B, z z/ D,/F,/D,/ E, z z/ G,/B,/G,/ | %68
 A, z z/ A,,/C,/A,,/ B,, z z/ F,,/A,,/F,,/ | %69
 G,,/G,/B,/G,/ D/D,/F,/D,/ G,/G,/A,/B,/ F,/F,,/A,,/F,,/ | B,,2 z2 z4 | z8 | z8 | %73
[K:alto] z4 z2 z F | D3/2C/4B,/4 F[K:bass] B,/D,/ E,/G,/E,/G,/ G,,C, | %75
 F,,2 A,,/C,/A,,/C,/ B,,/D,/B,,/D,/ F,,/D,/F,,/D,/ | %76
 G,,/D,/G,,/D,/ D,,/D,/D,,/D,/ E,,/G,/F,/G,/ TF,>F,, | B,,[K:alto]B,/B,/ A,C/C/ B,D/D/ FD,/D,/ | %78
 E,G,/G,/ B,D/D/ FA,/A,/ C[K:bass]A,,/A,,/ | B,,D,/D,/ E,F,,/F,,/ G,,B,,/B,,/ D,D,,/D,,/ | %80
 E,,E,,/E,,/ F,,F,,/F,,/ B,,2 z2 | z B,/B,/ D/D/D,/D,/ E,2 z2 | %82
 z F,/F,/ A,/A,/A,,/A,,/ B,,D,/D,/ F,/F,/F,,/F,,/ | G,,B,,/B,,/ D,/D,/D,,/D,,/ E,,G,/G,/ F,/E,/F, | %84
 B,,/C,/D,/=E,/ F,/G,/A,/F,/[K:alto] D/B,/D/E/ F/G/_A/F/ | %85
 G/E/D/C/ B,/A,/B,/G,/ A,/[K:bass]D,/C,/B,,/ A,,2 | %86
 z/ B,,/A,,/G,,/ F,,2 z/ G,,/F,,/E,,/ D,,F,/E,/ | E,/G,/C,/E,/ F,,2 B,,2 z2 |[K:alto] z8 | z8 | %90
 z8 | z8 | z8 | z8 | z4 z2 (3z z F | (3DB,D (3FF,_A, (3G,GA (3BD=E | (3FA,B, (3CF_E (3DB,D (3FCE | %97
 (3DB,D (3FED (3CDE (3DCF | (3DB,D (3:2:2F2 A, (3:2:1B,3[K:bass] (3z z D, | %99
 (3:2:1E,3 (3z z G, (3:2:1F,3 (3z z A,, | (3:2:1B,,3 (3z z F,, (3:2:1G,,3 (3z z D,, | %101
 (3:2:1E,,3 (3z z F,, (3:2:1B,,3[K:alto] (3z z F | (3DB,D (3:2:2F2 D, (3E,G,A, (3B,A,G, | %103
 (3A,F,A, (3C[K:bass] A,,C, (3B,,D,=E, (3F,F,,A,, | (3G,,B,,G,, (3D,E,F, (3E,F,G, (3F,E,F, | %105
 (3:2:1B,,3 z2 z4 |[K:alto] z8 | z8 | z2 (3z z F (3DB,D (3:2:1F3 | %109
 z2 (3z z B, (3G,E,G, (18:12:6(1:1:6B,/A,/B,/C/D/=E/ | %110
 F2[K:bass] (3z z F, (3D,B,,D, (6:4:6F,/G,/F,/E,/D,/C,/ | %111
 (3B,,G,,B,, (6:4:6D,/E,/D,/C,/B,,/A,,/ (3G,,3/2F,,/E,, (3:2:4F,,F,/E,/F, | B,,2 z2 z4 |] %113
V:3
!f! B,,B,"^6" PA,2 B,2"^6" D,2 | E,2 G,2 F,2"^6" A,,2 | B,,2"^6" F,,2 G,,2"^6" D,,2 | %3
"^6\n5" E,,2 F,,2 B,,B,"^6" PA,2 | B,2"^6" D,2 E,2 G,2 | F,2"^6" A,,2 B,,2"^6" F,,2 | %6
 G,,2"^6" D,,2"^6\n5" E,,2 F,,2 | B,,B, PA,2 B,2 D,2 | E,2 G,2 F,2"^6" A,,2 | %9
 B,,2 F,,2 G,,2"^6" D,,2 | E,,2 F,,2 B,,B, PA,2 | B,2"^(6)" D,2 E,2 G,2 | %12
 F,2"^(6)" A,,2 B,,2 F,,2 | G,,2 D,,2 E,,2 F,,2 | B,,B, PA,2 B,2"^6" D,2 | E,2 G,2 F,2"^6" A,,2 | %16
 B,,2"^6" F,,2 G,,2"^6" D,,2 |"^6\n5" E,,2 F,,2 B,,B,"^6" PA,2 | B,2"^6" D,2 E,2 G,2 | %19
 F,2"^6" A,,2 B,,2"^6" F,,2 | G,,2"^6" D,,2"^6\n5" E,,2 F,,2 | B,,B, PA,2 B,2 D,2 | %22
 E,2 G,2 F,2"^6" A,,2 | B,,2 F,,2 G,,2"^6" D,,2 | E,,2 F,,2 B,,B, PA,2 | B,2 D,2 E,2 G,2 | %26
 F,2"^6" A,,2 B,,2 F,,2 | G,,2 D,,2 E,,2 F,,2 | B,,B, PA,2 B,2 D,2 | E,2 G,2 F,2 A,,2 | %30
 B,,2 F,,2 G,,2 D,,2 | E,,2 F,,2 B,,B, PA,2 | B,2 D,2 E,2 G,2 | F,2 A,,2 B,,2 F,,2 | %34
 G,,2 D,,2 E,,2 F,,2 | B,,B, PA,2 B,2 D,2 | E,2"^(6)" G,2 F,2 A,,2 | B,,2 F,,2 G,,2 D,,2 | %38
 E,,2 F,,2 B,,B, PA,2 | B,2 D,2 E,2"^(6)" G,2 | F,2 A,,2 B,,2 F,,2 | G,,2 D,,2 E,,2 F,,2 | %42
 B,,B, PA,2 B,2 D,2 | E,2 G,2 F,2 A,,2 | B,,2 F,,2 G,,2 D,,2 | E,,2 F,,2 B,,B, PA,2 | %46
 B,2 D,2 E,2 G,2 | F,2 A,,2 B,,2 F,,2 | G,,2 D,,2 E,,2 F,,2 | B,,B, PA,2 B,2 D,2 | %50
 E,2 G,2 F,2 A,,2 | B,,2 F,,2 G,,2 D,,2 | E,,2 F,,2 B,,B, PA,2 | B,2 D,2 E,2 G,2 | %54
 F,2 A,,2 B,,2 F,,2 | G,,2 D,,2 E,,2 F,,2 | B,,B, PA,2 B,2 D,2 | E,2 G,2 F,2 A,,2 | %58
 B,,2 F,,2 G,,2 D,,2 | E,,2 F,,2 B,,B, PA,2 | B,2 D,2 E,2"^(6)" G,2 | F,2 A,,2 B,,2 F,,2 | %62
 G,,2 D,,2 E,,2 F,,2 | B,,B, PA,2 B,2 D,2 | E,2"^(6)" G,2 F,2 A,,2 | B,,2 F,,2 G,,2 D,,2 | %66
 E,,2 F,,2 B,,B, PA,2 | B,2 D,2 E,2 G,2 | F,2 A,,2 B,,2 F,,2 | G,,2 D,,2 E,,2 F,,2 | %70
 B,,B, PA,2 B,2 D,2 | E,2 G,2 F,2 A,,2 | B,,2 F,,2 G,,2 D,,2 | E,,2 F,,2 B,,B, PA,2 | %74
 B,2 D,2 E,2 G,2 | F,2 A,,2 B,,2 F,,2 | G,,2 D,,2 E,,2 F,,2 | B,,B, PA,2 B,2 D,2 | %78
 E,2 G,2 F,2 A,,2 | B,,2 F,,2 G,,2 D,,2 | E,,2 F,,2 B,,B, PA,2 | B,2 D,2 E,2 G,2 | %82
 F,2 A,,2 B,,2 F,,2 | G,,2 D,,2 E,,2 F,,2 | B,,B, PA,2 B,2 D,2 | E,2 G,2 F,2 A,,2 | %86
 B,,2 F,,2 G,,2 D,,2 | E,,2 F,,2 B,,B, PA,2 | B,2 D,2"^(6)" E,2"^(6)" G,2 | %89
"^(6)" F,2 A,,2 B,,2 F,,2 | G,,2 D,,2 E,,2 F,,2 | B,,B, PA,2 B,2 D,2 | E,2 G,2 F,2 A,,2 | %93
 B,,2 F,,2 G,,2 D,,2 | E,,2 F,,2 B,,B, PA,2 | B,2 D,2 E,2 G,2 | F,2 A,,2 B,,2 F,,2 | %97
 G,,2 D,,2 E,,2 F,,2 | B,,B, PA,2 B,2 D,2 | E,2 G,2 F,2 A,,2 | B,,2 F,,2 G,,2 D,,2 | %101
 E,,2 F,,2 B,,B, PA,2 | B,2 D,2 E,2 G,2 | F,2 A,,2 B,,2 F,,2 | G,,2 D,,2 E,,2 F,,2 | %105
 B,,B, PA,2 B,2 D,2 | E,2 G,2 F,2 A,,2 | B,,2 F,,2 G,,2 D,,2 | E,,2 F,,2 B,,B, PA,2 | %109
 B,2 D,2 E,2 G,2 | F,2 A,,2 B,,2 F,,2 | G,,2 D,,2 E,,2 F,,2 | B,,2 z2 z4 |] %113
V:4
"^Vivace.""^9. Volte."!f! d2 Pc2 d2 B2 | G2 B2 c2 Pc2 | d2 A2 B2 [DFB]2 | [CGB]2 [CFA]2 [DFB]2 c2 | %4
 d2 B2 G2 B2 | c2 Pc2 d2 A2 | B2 [DFB]2 [CGB]2 [CFA]2 | [DFB]2 [Fc]2 d2 B2 | %8
 G2 [DB]2 [Fc]2 P[F-c]2 | d2 A2 B2 [DFB]2 | [CGB]2 [CFA]2 [DFB]2 [F-c]2 | [Fd]2 [FB]2 [EG]2 [DB]2 | %12
 [Fc]2 P[F-c]2 [Fd]2 [D-A]2 | [DB]2 [DFB]2 [CGB]2 [CFA]2 | [DFB]2 [Fc]2 [Fd]2 [FB]2 | %15
 [EG]2 [DB]2 [Fc]2 P[F-c]2 | [Fd]2 [D-A]2 [DB]2 [DFB]2 | [CGB]2 [CFA]2 [DFB]2 [F-c]2 | %18
 [Fd]2 [FB]2 [EG]2 [DB]2 | [Fc]2 P[F-c]2 [Fd]2 [D-A]2 | [DB]2 [DFB]2 [CGB]2 [CFA]2 | %21
 [DFB]2 [Fc]2 [Fd]2 [FB]2 | [EG]2 [DB]2 [Fc]2 P[F-c]2 | [Fd]2 [D-A]2 [DB]2 [DFB]2 | %24
 [CGB]2 [CFA]2 [DFB]2 [Fc]2 | [Fd]2 [FB]2 [EG]2 [DB]2 | [Fc]2 Pc2 d2 A2 | %27
 [DB]2 [DFB]2 [CGB]2 [CFA]2 | [DFB]2 [F-c]2 [Fd]2 [FB]2 | [EG]2 [DB]2 [Fc]2 P[F-c]2 | %30
 [Fd]2 [FA]2 [DB]2 [DFB]2 | [CGB]2 [CFA]2 [DFB]2 [Fc]2 | [Fd]2 [FB]2 [EG]2 [DB]2 | %33
 [Fc]2 P[F-c]2 [Fd]2 [FA]2 | [DB]2 [FB]2 [CG]2 [CF]2 | [B,DF]2 [CF-]2 [B,F]2 [FB]2 | %36
 [EG]2 [EG]2 [FA]2 P[Fc]2 | [Fd]2 [FA]2 [DB]2 [FB]2 | [CG]2 [CF-]2 [DF]2 [CF]2 | %39
 [DF]2 [FB]2 [EG]2 [EB]2 | [FA]2 MF2- F2 [D-F]2 | D2 [DFB]2 [CGB]2 [CFA]2 | %42
 [DFB]2 [Fc]2 [Fd]2 [FB]2 | [EG]2 [DB]2 [Fc]2 P[F-c]2 | [Fd]2 P[D-A]2 [DB]2 [DFB]2 | %45
 [CGB]2 [CFA]2 [DFB]2 P[F-c]2 | [Fd]2 [FB]2 [EG]2 [DB]2 | [Fc]2 PM[F-c]2 [Fd]2 P[D-A]2 | %48
 [DB]2 [DFB]2 [CGB]2 [CFA]2 | [DFB]2 [F-c]2 [Fd]2 [FB]2 | [EG]2 [DB]2 [Fc]2 P[F-c]2 | %51
 [Fd]2 P[D-A]2 [DB]2 [DFB]2 | [CGB]2 [CFA]2 [DFB]2 P[Fc]2 | [Fd]2 [FB]2 [EG]2 [DB]2 | %54
 [Fc]2 M[F-c]2 [Fd]2 P[D-A]2 | [DB]2 [DFB]2 [CGB]2 [CFA]2 | [DFB]2 [Fc]2 [Fd]2 [FB]2 | %57
 [EG]2 [DB]2 [Fc]2 P[F-c]2 | [Fd]2 P[D-A]2 [DB]2 [B,FB]2 | [B,CG]2 [A,CF]2 [B,DF]2 [CF]2 | %60
 [DF]2 [FB]2 [EG]2 [EG]2 | [FA]2 M[F-c]2 [Fd]2 P[D-A]2 | [DB]2 [DFB]2 [CGB]2 [CFA]2 | %63
 [DFB]2 [Fc]2 [Fd]2 [FB]2 | [EG]2 [EB]2 [FA]2 P[F-c]2 | [Fd]2 P[D-A]2 [DB]2 [DFB]2 | %66
 [CGB]2 [FA]2 [DFB]2 [Fc]2 | [Fd]2 [FB]2 [EG]2 [DB]2 | [Fc]2 P[F-c]2 [Fd]2 P[D-A]2 | %69
 [DB]2 [DFB]2 [CGB]2 [CFA]2 | [DFB]2 P[Fc]2 [Fd]2 [FB]2 | [EG]2 [DB]2 [Fc]2 P[F-c]2 | %72
 [Fd]2 P[FA]2 [DB]2 [DFB]2 | [CGB]2 [CFA]2 [DFB]2 [Fc]2 | [Fd]2 [FB]2 G2 [DB]2 | %75
 [Fc]2 P[F-c]2 [Fd]2 P[D-A]2 | [DB]2 [DFB]2 [CGB]2 [CFA]2 | [DFB]2 P[Fc]2 [Fd]2 [FB]2 | %78
 [EG]2 [DB]2 [Fc]2 P[F-c]2 | [Fd]2 P[D-A]2 [DB]2 [DFB]2 | [CGB]2 [CFA]2 [DFB]2 [Fc]2 | %81
 [Fd]2 [FB]2 [EG]2 [DB]2 | [Fc]2 P[F-c]2 [Fd]2 P[D-A]2 | [DB]2 [DFB]2 [CGB-]2 BA | %84
 [DFB]2 [Fc]2 [Fd]2 [FB]2 | [EG]2 [DB]2 [Fc]2 P[F-c]2 | [Fd]2 P[D-A]2 [DB]2 [DFB]2 | %87
 [CGB]2 [CFA]2 [DFB]2 [Fc]2 | [Fd]2 [FB]2 [EG]2 [DB]2 | [Fc]2 P[F-c]2 [Fd]2 P[D-A]2 | %90
 [DB]2 [DFB]2 [CGB]2 [CFA]2 | [DFB]2 [Fc]2 [Fd]2 [FB]2 | [EG]2 [DB]2 [Fc]2 P[F-c]2 | %93
 [Fd]2 P[D-A]2 [DB]2 [DFB]2 | [CGB]2 [CFA]2 [DFB]2 [Fc]2 | [Fd]2 [FB]2 [EG]2 [DB]2 | %96
 [Fc]2 P[F-c]2 [Fd]2 P[D-A]2 | [DB]2 [DFB]2 [CGB]2 [CFA]2 | [DFB]2 [Fc]2 [Fd]2 [FB]2 | %99
 [EG]2 [DB]2 [Fc]2 P[F-c]2 | [Fd]2 P[D-A]2 [DB]2 [DFB]2 | [CGB]2 [CFA]2 [DFB]2 [F-c]2 | %102
 [Fd]2 [FB]2 [EG]2 [DB]2 | [Fc]2 P[F-c]2 [Fd]2 P[FA]2 | [DB]2 [DFB]2 [CGB]2 [CFA]2 | %105
 [DFB]2 [Fc]2 [Fd]2 [FB]2 | [EG]2 [DB]2 [Fc]2 P[F-c]2 | [Fd]2 P[FA]2 [DB]2 [DFB]2 | %108
 [CGB]2 [CFA]2 [DFB]2 [Fc]2 | [Fd]2 [FB]2 [EG]2 [DB]2 | [Fc]2 P[F-c]2 [Fd]2 P[D-A]2 | %111
 [DB]2 [DFB]2 [CGB-]2 B>A | [DFB]2 z2 z4 |] %113
V:5
 F4 F4 | E2 D2 F2 F2- | F2 D4 x2 | x6 F2 | F4 E2 D2 | F4- F2 D2- | D2 x6 | x4 F4 | E2 x6 | %9
 F2 D4 x2 | x8 | x8 | x8 | x4 z4 | x8 | x8 | x8 | z4 x4 | x4 z4 | x8 | x4 z4 | x8 | x8 | x8 | %24
 z4 x4 | x4 z4 | x2 F4 D2- | x4 z4 | x8 | x8 | x8 | z4 x4 | x4 z4 | x8 | x2 B,2 B,2- B,A, | x8 | %36
 z4 x4 | x6 B,2 | B,2 B,PA, B,2 x2 | x4 z4 | x4 D2 x2 | [G,B,]2 x6 | x4 z4 | z4 x4 | x8 | x8 | %46
 z4 z4 | x8 | x8 | x4 z4 | z4 x4 | x8 | x8 | z4 z4 | x8 | x8 | x4 z4 | z4 x4 | x8 | x8 | x4 z4 | %61
 x8 | x8 | x4 z4 | z4 x4 | x8 | x2 DC x4 | z4 z4 | x8 | x8 | x4 z4 | z4 x4 | x8 | x8 | z4 G2 x2 | %75
 x8 | x8 | x8 | z4 x4 | x8 | x8 | x8 | x8 | x6 [CF]2 | x8 | x8 | x8 | x8 | x8 | x8 | x8 | x8 | x8 | %93
 x8 | x8 | x8 | x8 | x8 | x8 | x8 | x8 | x8 | x8 | x8 | x8 | x8 | x8 | x8 | x8 | x8 | x8 | %111
 x6 [CF]2 | x8 |] %113
V:6
 B,,B, PA,2 B,2 [D,B,]2 | [E,B,]2 [G,B,]2 [F,A,]2 C2 | [B,,B,]2 F,,2 G,,2 D,2 | %3
 E,2 F,2 B,,B, PA,2 | B,2 [D,B,]2 [E,B,]2 [G,B,]2 | [F,A,]2 C2 [B,,B,]2 F,,2 | G,,2 D,2 E,2 F,2 | %7
 B,,B, PA,2 B,2 [D,B,]2 | [E,B,]2 [G,B,]2 [F,A,]2 C2 | [B,,B,]2 F,,2 G,,2 D,2 | %10
 E,2 F,2 B,,B, PA,2 | B,2 [D,B,]2 [E,B,]2 [G,B,]2 | [F,A,]2 C2 [B,,B,]2 F,,2 | G,,2 D,2 E,2 F,2 | %14
 B,,B, PA,2 B,2 [D,B,]2 | [E,B,]2 [G,B,]2 [F,A,]2 C2 | [B,,B,]2 F,,2 G,,2 D,,2 | %17
 E,,2 F,,2 B,,B, PA,2 | B,2 [D,B,]2 [E,B,]2 [G,B,]2 | [F,A,]2 C2 [B,,B,]2 F,,2 | %20
 G,,2 D,,2 E,,2 F,,2 | B,,B, PA,2 B,2 [D,B,]2 | [E,B,]2 [G,B,]2 [F,A,]2 C2 | %23
 [B,,B,]2 F,,2 G,,2 D,,2 | E,,2 F,,2 B,,B, PA,2 | B,2 [D,B,]2 [E,B,]2 [G,B,]2 | %26
 [F,A,]2 C2 [B,,B,]2 F,,2 | G,,2 D,,2 E,,2 F,,2 | B,,B, PA,2 B,2 [D,B,]2 | %29
 [E,B,]2 [G,B,]2 [F,A,]2 C2 | [B,,B,]2 F,,2 G,,2 D,,2 | E,2 F,2 B,,B, PA,2 | B,2 D,2 E,2 G,2 | %33
 F,2 A,,2 B,,2 F,,2 | G,,2 D,,2 E,,2 F,,2 | B,,B, PA,2 B,2 [D,B,]2 | [E,B,]2 [G,B,]2 [F,A,]2 C2 | %37
 [B,,B,]2 F,,2 G,,2 D,,2 | E,,2 F,,2 B,,B, PA,2 | B,2 [D,B,]2 [E,B,]2 [G,B,]2 | %40
 [F,C]2 C2 [B,,B,]2 [F,,A,]2 | G,,2 D,,2 E,,2 F,,2 | B,,B, PA,2 B,2 [D,B,]2 | %43
 [E,B,]2 [G,B,]2 [F,A,]2 C2 | [B,,B,]2 F,,2 G,,2 D,,2 | E,,2 F,,2 B,,B, PA,2 | %46
 B,2 [D,B,]2 [E,B,]2 [G,B,]2 | [F,A,]2 C2 [B,,B,]2 F,,2 | G,,2 D,,2 E,,2 F,,2 | %49
 B,,B, PA,2 B,2 [D,B,]2 | [E,B,]2 [G,B,]2 [F,A,]2 C2 | [B,,B,]2 F,,2 G,,2 D,,2 | %52
 E,,2 F,,2 B,,B, PA,2 | B,2 [D,B,]2 [E,B,]2 [G,B,]2 | [F,A,]2 C2 [B,,B,]2 F,,2 | %55
 G,,2 D,,2 E,,2 F,,2 | B,,B, PA,2 B,2 [D,B,]2 | [E,B,]2 [G,B,]2 [F,A,]2 C2 | %58
 [B,,B,]2 F,,2 G,,2 D,,2 | E,,2 F,,2 B,,B, PA,2 | B,2 [D,B,]2 [E,B,]2 [G,B,]2 | %61
 [F,A,]2 C2 [B,,B,]2 F,,2 | G,,2 D,,2 E,,2 F,,2 | B,,B, PA,2 B,2 [D,B,]2 | %64
 [E,B,]2 [G,B,]2 [F,C]2 C2 | [B,,B,]2 F,,2 G,,2 D,,2 | E,,2 F,,2 B,,B, PA,2 | %67
 B,2 [D,B,]2 [E,B,]2 [G,B,]2 | [F,A,]2 C2 [B,,B,]2 F,,2 | G,,2 D,,2 E,,2 F,,2 | %70
 B,,B, PA,2 B,2 [D,B,]2 | [E,B,]2 [G,B,]2 [F,A,]2 C2 | [B,,B,]2 F,,2 G,,2 D,,2 | %73
 E,,2 F,,2 B,,B, PA,2 | B,2 [D,B,]2 [E,B,]2 [G,B,]2 | [F,A,]2 C2 [B,,B,]2 F,,2 | %76
 G,,2 D,,2 E,,2 F,,2 | B,,B, PA,2 B,2 [D,B,]2 | [E,B,]2 [G,B,]2 [F,A,]2 C2 | %79
 [B,,B,]2 F,,2 G,,2 D,,2 | E,,2 F,,2 B,,B, PA,2 | B,2 [D,B,]2 [E,B,]2 [G,B,]2 | %82
 [F,A,]2 C2 [B,,B,]2 F,,2 | G,,2 D,,2 E,,2 F,,2 | B,,B, PA,2 B,2 [D,B,]2 | %85
 [E,B,]2 [G,B,]2 [F,A,]2 C2 | [B,,B,]2 F,,2 G,,2 D,,2 | E,,2 F,,2 B,,B, PA,2 | B,2 D,2 E,2 G,2 | %89
 F,2 C2 [B,,B,]2 F,,2 | G,,2 D,,2 E,,2 F,,2 | B,,B, PA,2 B,2 [D,B,]2 | [E,B,]2 [G,B,]2 [F,A,]2 C2 | %93
 [B,,B,]2 F,,2 G,,2 D,,2 | E,,2 F,,2 B,,B, PA,2 | B,2 [D,B,]2 [E,B,]2 [G,B,]2 | %96
 [F,A,]2 C2 [B,,B,]2 F,,2 | G,,2 D,,2 E,,2 F,,2 | B,,B, PA,2 B,2 D,2 | [E,B,]2 [G,B,]2 [F,A,]2 C2 | %100
 [B,,B,]2 F,,2 G,,2 D,,2 | E,,2 F,,2 B,,B, PA,2 | B,2 [D,B,]2 [E,B,]2 [G,B,]2 | %103
 [F,A,]2 C2 [B,,B,]2 F,,2 | G,,2 D,,2 E,,2 F,,2 | B,,B, PA,2 B,2 [D,B,]2 | %106
 [E,B,]2 [G,B,]2 [F,A,]2 C2 | [B,,B,]2 F,,2 G,,2 D,,2 | E,,2 F,,2 B,,B, PA,2 | %109
 B,2 [D,B,]2 [E,B,]2 [G,B,]2 | [F,A,]2 C2 [B,,B,]2 F,,2 | G,,2 D,,2 E,,2 F,,2 | B,,2 z2 z4 |] %113
V:7
 x8 | x6 A,,2 | x8 | x8 | x8 | x2 A,,2 x4 | x8 | x8 | x6 A,,2 | x8 | x8 | x8 | x2 A,,2 x4 | x8 | %14
 x8 | x6 A,,2 | x8 | x8 | x8 | x2 A,,2 x4 | x8 | x8 | x6 A,,2 | x8 | x8 | x8 | x2 A,,2 x4 | x8 | %28
 x8 | x6 A,,2 | x8 | x8 | x8 | x8 | x8 | x8 | x6 A,,2 | x8 | x8 | x8 | x2 A,,2 x4 | x8 | x8 | %43
 x6 A,,2 | x8 | x8 | x8 | x2 A,,2 x4 | x8 | x8 | x6 A,,2 | x8 | x8 | x8 | x2 A,,2 x4 | x8 | x8 | %57
 x6 A,,2 | x8 | x8 | x8 | x2 A,,2 x4 | x8 | x8 | x6 A,,2 | x8 | x8 | x8 | x2 A,,2 x4 | x8 | x8 | %71
 x6 A,,2 | x8 | x8 | x8 | x2 A,,2 x4 | x8 | x8 | x6 A,,2 | x8 | x8 | x8 | x2 A,,2 x4 | x4 z4 | x8 | %85
 x6 A,,2 | x8 | x8 | x8 | x2 A,,2 x4 | x8 | x8 | x6 A,,2 | x8 | x8 | x8 | x2 A,,2 x4 | x8 | x8 | %99
 x6 A,,2 | x2 C2 B,2 x2 | x8 | x8 | x2 A,,2 x4 | x8 | x8 | x6 A,,2 | x8 | x8 | x8 | x2 A,,2 x4 | %111
 x8 | x8 |] %113

